libs/icons/svgs/operators_greater_than_or_equal.svg

<svg xmlns="http://www.w3.org/2000/svg" viewBox="0 0 24 24"><path d="m4.41 6 6 6-6 6L3 16.59 7.58 12 3 7.41 4.41 6ZM21 14v2h-8v-2h8Zm0-6v2h-8V8h8Z"/></svg>

<?xml version="1.0" encoding="UTF-8"?>
<svg width="24px" height="24px" viewBox="0 0 24 24" version="1.1" xmlns="http://www.w3.org/2000/svg" xmlns:xlink="http://www.w3.org/1999/xlink">
    <title>Greater than or equal to</title>
    <path fill="#000000" d="M21,10 L13,10 L13,8 L21,8 L21,10 Z M21,16 L13,16 L13,14 L21,14 L21,16 Z M4.41,6 L10.41,12 L4.41,18 L3,16.59 L7.58,12 L3,7.41 L4.41,6 Z"></path>
</svg>
